!!!COM: Unknown
!!!CDT: Unknown
!!!OTL: National Anthem, Slovakia
!!!ENC: Davis, Matthew J.
!!Vocal Line Only
**kern
*clefG2
*k[f#c#g#]
*f#:
*M4/4
=1-
8f#
8g#
4a
4a
8a
8a
=2
8g#
8a
8b
8a
4g#
4f#
=3
8a
8b
4cc#
4cc#
8cc#
8cc#
=4
8b
8cc#
8dd
8cc#
4b
4a
=5
8cc#
8cc#
4cc#
4b
8b
8b
=6
8b
8cc#
4b
4a
8a
8a
=7
8g
8a
8b
8a
4g
4f#
=8
8cc#
8cc#
4cc#
4b
8b
8b
=9
8b
8cc#
4b
4a
8a
8a
=10
8g#
8a
8b
8a
4g#
4f#
==|!
*-
